X: 9
T: The Black Rogue
R:jig
M:6/8
K:D
d  |"A"cAA "G"BGB|"A"cAA A2d|"A"cAA "G"BGB|"D"AFD D2d|
"A"cAA "G"BGB|"A"cAA "D"AGF|"G"GFG BAB|"D"AFD D2:|
|: e|"D"fef "G"gfg|"D"afd "A"cBA|"D"fef "G"gfg|"D"afd "G"dfg|
"D"agf "G"gfe|"D"fed "A"e2d|cAA "G"BGB|"D"AFD D2:|


